X: 187
T: The Skylark
N:"Tenderly" "collected by F. O'Neill"
B:O'Neill's 187
Z:Transcribed by henrik.norbeck@mailbox.swipnet.se
M:3/4
L:1/8
K:G
(BA)|G>F (F>G) (EC)|D4 (3DEF|G3 .A(Bc)|A2 d2 dB|
G>G FG EC|D4 (3DEF|GB E2 AF|G4||
DD|(G3 F) (G/A/B/c/)|d4 e>d|dB GA (3Bdc|B2 A2 dB|
G>F FG EC|D4 (3DEF|GB E2 AF|G4||


